X: 22
T: Missa Ave sanctissima Maria / Credo
N: Derived from Rue1005c-Missa_Ave_sanctissima_Maria-Credo.krn
C: Pierre de la Rue
%%abc-version 2.0
%%abcx-abcm2ps-target-version 5.9.1 (29 Sep 2008)
%%abc-creator hum2abc beta
%%abcx-conversion-date 2019/02/17 08:01:10
%%abc-edited-by Jesse Rodin
%%abc-edited-by Chris Gage 12-21-2012
%%abcx-initial-encoding-date 2013/07/18/
%%humdrum-veritas 3646829554
%%humdrum-veritas-data 1961588104
%%linebreak <none>
%%barnumbers 0
L: 1/4
M: 4/2
Q: 1/2=120
V: 1 clef=treble
V: 2 clef=treble
V: 3 clef=treble-8
V: 4 clef=treble-8
V: 5 clef=bass
V: 6 clef=bass
K: C
[V:1] z8 | 
[V:2] G4G4 | 
[V:3] z8 | 
[V:4] G4G2E2- | 
[V:5] z8 | 
[V:6] G,4G,4 | 
[V:1] c4c4 | 
[V:2] E4C4 | 
[V:3] c4c2A2- | 
[V:4] E2C2E4 | 
[V:5] C4C4 | 
[V:6] C,4C,4 | 
[V:1] A4F4 | 
[V:2] F6D2 | 
[V:3] A2F2A4 | 
[V:4] F2D2D4- | 
[V:5] F,4F,4 | 
[V:6] D,4D,4 | 
[V:1] _B6G2 | 
[V:2] D4z2G2- | 
[V:3] _B2G2G4- | 
[V:4] D4D4 | 
[V:5] G,4G,4 | 
[V:6] G,,8 | 
[V:1] G4z2c2- | 
[V:2] G2G2G4 | 
[V:3] G4G4 | 
[V:4] z2G2G2E2- | 
[V:5] C,8 | 
[V:6] G,4G,2G,2 | 
[V:1] c2c2c4 | 
[V:2] E4C4 | 
[V:3] z2c2c2A2- | 
[V:4] E2C2E4 | 
[V:5] C4C2C2 | 
[V:6] C,4C,4 | 
[V:1] A4F4 | 
[V:2] F6D2 | 
[V:3] A2F2A4 | 
[V:4] F2D2D4- | 
[V:5] F,4F,4 | 
[V:6] D,6G,,2 | 
[V:1] _B6G2 | 
[V:2] D8- | 
[V:3] _B8- | 
[V:4] D8- | 
[V:5] G,8- | 
[V:6] G,,8- | 
[V:1] G8 ||  
[V:2] D8 ||  
[V:3] B8 ||  
[V:4] D8 ||  
[V:5] G,8 ||  
[V:6] G,,8 ||  
[V:1]  [K:C] [K:clef=treble][M:4/2]z8 | 
[V:2]  [K:C] [K:clef=treble][M:4/2]G4G2G2- | 
[V:3]  [K:C] [K:clef=treble-8][M:4/2]z8 | 
[V:4]  [K:C] [K:clef=treble-8][M:4/2]z8 | 
[V:5]  [K:C] [K:clef=bass][M:4/2]z8 | 
[V:6]  [K:C] [K:clef=bass][M:4/2]G,4G,2E,2- | 
[V:1] z8 | 
[V:2] G2FEF4 | 
[V:3] z8 | 
[V:4] z8 | 
[V:5] z8 | 
[V:6] E,2D,C,D,4 | 
[V:1] z8 | 
[V:2] E2E2EDEF | 
[V:3] z8 | 
[V:4] c4c2c2- | 
[V:5] z8 | 
[V:6] C,2C,2C,3D, | 
[V:1] z8 | 
[V:2] G2A4^G2 | 
[V:3] z8 | 
[V:4] c2BAB4 | 
[V:5] z8 | 
[V:6] E,2F,2E,4 | 
[V:1] c4c2c2- | 
[V:2] A8 | 
[V:3] z8 | 
[V:4] A8 | 
[V:5] C4C2A,2- | 
[V:6] A,,8 | 
[V:1] c2BAB4 | 
[V:2] z8 | 
[V:3] z8 | 
[V:4] z8 | 
[V:5] A,2G,F,G,4 | 
[V:6] z8 | 
[V:1] A2A2AGAB | 
[V:2] z4z2A2 | 
[V:3] f4f2f2- | 
[V:4] z8 | 
[V:5] F,2F,2F,3G, | 
[V:6] z8 | 
[V:1] c2d4^c2 | 
[V:2] A2G2A4 | 
[V:3] f2ede4 | 
[V:4] z4A3A | 
[V:5] A,2_B,2A,4 | 
[V:6] z8 | 
[V:1] d8 | 
[V:2] A2F4ED | 
[V:3] d8 | 
[V:4] A2A2D2d2- | 
[V:5] D,8 | 
[V:6] z8 | 
[V:1] z8 | 
[V:2] E4D2G2- | 
[V:3] z8 | 
[V:4] dcc2d2B2 | 
[V:5] z8 | 
[V:6] z8 | 
[V:1] z4z2d2 | 
[V:2] G2F2GFED | 
[V:3] z8 | 
[V:4] A4G4 | 
[V:5] z8 | 
[V:6] z8 | 
[V:1] d2c2d4 | 
[V:2] E4F4 | 
[V:3] z4d3d | 
[V:4] z8 | 
[V:5] z8 | 
[V:6] z8 | 
[V:1] d2B4AG | 
[V:2] D8 | 
[V:3] d2d2G2g2- | 
[V:4] z8 | 
[V:5] z8 | 
[V:6] G,3G,G,2G,2 | 
[V:1] A4G2c2- | 
[V:2] z8 | 
[V:3] gff2g2e2 | 
[V:4] z8 | 
[V:5] z8 | 
[V:6] D,4G,2A,2- | 
[V:1] c2B2cBAG | 
[V:2] z8 | 
[V:3] d4c4 | 
[V:4] z8 | 
[V:5] z8 | 
[V:6] A,2G,2A,G,F,E, | 
[V:1] A4B4 | 
[V:2] D3DD2D2 | 
[V:3] z8 | 
[V:4] z8 | 
[V:5] z8 | 
[V:6] F,2G,F,G,4 | 
[V:1] G8 | 
[V:2] E4E2E2 | 
[V:3] z8 | 
[V:4] z8 | 
[V:5] C3CC2C2 | 
[V:6] C,8 | 
[V:1] z8 | 
[V:2] E3FGEA2- | 
[V:3] z8 | 
[V:4] z8 | 
[V:5] G,4C2D2- | 
[V:6] z4z2D,2 | 
[V:1] z8 | 
[V:2] AGG4^F2 | 
[V:3] z8 | 
[V:4] z2G2A2A2 | 
[V:5] D2C2DCB,A, | 
[V:6] E,2E,2D,2D,2 | 
[V:1] G3GG2G2 | 
[V:2] G8 | 
[V:3] z8 | 
[V:4] G2G2C4 | 
[V:5] B,2CB,C4 | 
[V:6] G,,4z4 | 
[V:1] A4A2A2 | 
[V:2] z8 | 
[V:3] z8 | 
[V:4] c2A3BcA | 
[V:5] F,8 | 
[V:6] z8 | 
[V:1] A3BcAd2- | 
[V:2] z8 | 
[V:3] z8 | 
[V:4] d2c4B2 | 
[V:5] z4z2G,2 | 
[V:6] z8 | 
[V:1] dcc4B2 | 
[V:2] z4G4 | 
[V:3] z2c2d2d2 | 
[V:4] c4z4 | 
[V:5] A,2A,2G,2G,2 | 
[V:6] z8 | 
[V:1] c8 | 
[V:2] G2G2A3G | 
[V:3] c2c2F4 | 
[V:4] c4c2c2 | 
[V:5] C,4z4 | 
[V:6] z8 | 
[V:1] z8 | 
[V:2] F4z2D2 | 
[V:3] f2d3efd | 
[V:4] d3cB4 | 
[V:5] z8 | 
[V:6] z8 | 
[V:1] z8 | 
[V:2] E2F2G3G | 
[V:3] g2f4e2 | 
[V:4] z2A2B2c2 | 
[V:5] z8 | 
[V:6] z8 | 
[V:1] z4c4 | 
[V:2] F2A4A2 | 
[V:3] f4z4 | 
[V:4] d3dA4 | 
[V:5] z8 | 
[V:6] z8 | 
[V:1] c2c2d3c | 
[V:2] AGFED4 | 
[V:3] f4f2f2 | 
[V:4] A2A2d4 | 
[V:5] z8 | 
[V:6] z8 | 
[V:1] B4z2G2 | 
[V:2] z8 | 
[V:3] g3fe4 | 
[V:4] G4z4 | 
[V:5] z8 | 
[V:6] z8 | 
[V:1] A2B2c3c | 
[V:2] z8 | 
[V:3] z2d2e2f2 | 
[V:4] z8 | 
[V:5] z8 | 
[V:6] z8 | 
[V:1] B2d4d2 | 
[V:2] z2G2G4- | 
[V:3] g3gd4 | 
[V:4] G8 | 
[V:5] z8 | 
[V:6] G,,8 | 
[V:1] dcBAG4 | 
[V:2] G2FED3B, | 
[V:3] d2d2g4 | 
[V:4] B4B4 | 
[V:5] z8 | 
[V:6] G,,4G,,4 | 
[V:1] z8 | 
[V:2] CDE3FGE | 
[V:3] c4z4 | 
[V:4] A2c3BB2- | 
[V:5] z8 | 
[V:6] A,,3B,,C,D,E,2 | 
[V:1] z8 | 
[V:2] FEDCD4 | 
[V:3] z8 | 
[V:4] BAA4^G2 | 
[V:5] z8 | 
[V:6] D,C,B,,A,,B,,4 | 
[V:1] z2c2c4- | 
[V:2] C8 | 
[V:3] c8 | 
[V:4] A8 | 
[V:5] C,8 | 
[V:6] A,,8 | 
[V:1] c2BAG3E | 
[V:2] z8 | 
[V:3] e4e4 | 
[V:4] z8 | 
[V:5] C,4C,4 | 
[V:6] z8 | 
[V:1] FGA3BcA | 
[V:2] z8 | 
[V:3] d2f3ee2- | 
[V:4] z8 | 
[V:5] D,3E,F,G,A,2 | 
[V:6] z8 | 
[V:1] _BAGFG4 | 
[V:2] z8 | 
[V:3] edd4^c2 | 
[V:4] z8 | 
[V:5] G,F,E,D,E,4 | 
[V:6] z8 | 
[V:1] F8 | 
[V:2] z4A3A | 
[V:3] d8 | 
[V:4] A3AA2A2 | 
[V:5] D,8 | 
[V:6] z4z2D,2- | 
[V:1] z8 | 
[V:2] A2A2AGFE | 
[V:3] z8 | 
[V:4] AGFED2D2 | 
[V:5] z8 | 
[V:6] D,D,D,2D,2D,C, | 
[V:1] z8 | 
[V:2] D2D2G2G2 | 
[V:3] z8 | 
[V:4] G2G2GFED | 
[V:5] z8 | 
[V:6] B,,A,,G,,4G,,2 | 
[V:1] z8 | 
[V:2] GFED^C2DC | 
[V:3] z8 | 
[V:4] C2D2E4 | 
[V:5] z8 | 
[V:6] C,2B,,2A,,2A,,2 | 
[V:1] z4d3d | 
[V:2] D8 | 
[V:3] d3dd2d2 | 
[V:4] D8 | 
[V:5] z4z2G,2- | 
[V:6] D,6G,,2 | 
[V:1] d2d2dcBA | 
[V:2] z8 | 
[V:3] dcBAG2G2 | 
[V:4] z8 | 
[V:5] G,G,G,2G,2G,F, | 
[V:6] G,,8 | 
[V:1] G2G2c2c2 | 
[V:2] z8 | 
[V:3] c2c2cBAG | 
[V:4] z8 | 
[V:5] E,D,C,4C,2 | 
[V:6] z8 | 
[V:1] cBAG^F2GF | 
[V:2] z8 | 
[V:3] F2G2A4 | 
[V:4] z8 | 
[V:5] F,2E,2D,2D,2 | 
[V:6] z8 | 
[V:1] G8 | 
[V:2] z8 | 
[V:3] G8 | 
[V:4] z8 | 
[V:5] G,6C,2 | 
[V:6] z4C,4- | 
[V:1] z8 | 
[V:2] E8 | 
[V:3] z8 | 
[V:4] G8 | 
[V:5] C,8 | 
[V:6] C,4C,4 | 
[V:1] z8 | 
[V:2] F4F4- | 
[V:3] z8 | 
[V:4] F4A4- | 
[V:5] z8 | 
[V:6] D,6D,2 | 
[V:1] z8 | 
[V:2] F2F2F4 | 
[V:3] z8 | 
[V:4] A2A2A4- | 
[V:5] z8 | 
[V:6] D,8 | 
[V:1] z8 | 
[V:2] E4D4 | 
[V:3] z8 | 
[V:4] A4D4 | 
[V:5] z4F,4- | 
[V:6] C,4B,,4 | 
[V:1] A8 | 
[V:2] C3B,A,4 | 
[V:3] c8 | 
[V:4] A8 | 
[V:5] F,4F,4 | 
[V:6] A,,8 | 
[V:1] B4B4- | 
[V:2] z2D2D2D2- | 
[V:3] B4d4- | 
[V:4] D8- | 
[V:5] G,6G,2 | 
[V:6] G,,8- | 
[V:1] B2B2B4 | 
[V:2] DCB,A,G,2D2- | 
[V:3] d2d2d4- | 
[V:4] D8 | 
[V:5] G,8 | 
[V:6] G,,8 | 
[V:1] A4G4 | 
[V:2] D2D2E2C2- | 
[V:3] d4G4 | 
[V:4] z8 | 
[V:5] F,4E,4 | 
[V:6] z8 | 
[V:1] F3ED4 | 
[V:2] C2B,A,B,4 | 
[V:3] d8 | 
[V:4] z8 | 
[V:5] D,8 | 
[V:6] z8 | 
[V:1] z2G2G2G2- | 
[V:2] C4E4 | 
[V:3] G8- | 
[V:4] E4E2E2- | 
[V:5] C,8- | 
[V:6] C,4C,2C,2- | 
[V:1] GFEDC2G2- | 
[V:2] E2E4E2 | 
[V:3] G8 | 
[V:4] E2c4BA | 
[V:5] C,8 | 
[V:6] C,2C,2E,4- | 
[V:1] G2G2A2F2- | 
[V:2] E4F2D2- | 
[V:3] z8 | 
[V:4] G2G2F2A2- | 
[V:5] z8 | 
[V:6] E,4D,4 | 
[V:1] F2EDE4 | 
[V:2] D2^CB,C4 | 
[V:3] z8 | 
[V:4] A2GFE4 | 
[V:5] z8 | 
[V:6] A,,8 | 
[V:1] F4A4 | 
[V:2] D8 | 
[V:3] A4A2A2- | 
[V:4] D8 | 
[V:5] F,4F,2F,2- | 
[V:6] D,8 | 
[V:1] A2A4A2 | 
[V:2] z8 | 
[V:3] A2f4ed | 
[V:4] z8 | 
[V:5] F,2F,2A,4- | 
[V:6] z8 | 
[V:1] A4B2G2- | 
[V:2] z8 | 
[V:3] c2c2B2d2- | 
[V:4] z8 | 
[V:5] A,4G,4 | 
[V:6] z8 | 
[V:1] G2^FEF4 | 
[V:2] z8 | 
[V:3] d2cBA4 | 
[V:4] z8 | 
[V:5] D,8 | 
[V:6] z8 | 
[V:1] G8 | 
[V:2] z4z2G2 | 
[V:3] G8 | 
[V:4] z2G2G2G2 | 
[V:5] G,8 | 
[V:6] z4G,4 | 
[V:1] z8 | 
[V:2] G2G2E3F | 
[V:3] z8 | 
[V:4] E3FG2E2 | 
[V:5] z8 | 
[V:6] G,4G,4 | 
[V:1] z8 | 
[V:2] G2A3GFE | 
[V:3] z8 | 
[V:4] c3BAGA2- | 
[V:5] z8 | 
[V:6] C,8 | 
[V:1] z8 | 
[V:2] F2E3DD2 | 
[V:3] z8 | 
[V:4] AGFEF4 | 
[V:5] z8 | 
[V:6] D,8 | 
[V:1] z4z2c2 | 
[V:2] E8 | 
[V:3] z2c2c2c2 | 
[V:4] E8- | 
[V:5] z4C4 | 
[V:6] A,,8- | 
[V:1] c2c2A3B | 
[V:2] z8 | 
[V:3] A3Bc2A2 | 
[V:4] E8 | 
[V:5] C4C4 | 
[V:6] A,,8 | 
[V:1] c2d3cBA | 
[V:2] z8 | 
[V:3] f3edcd2- | 
[V:4] z8 | 
[V:5] F,8 | 
[V:6] z8 | 
[V:1] B2A3GG2 | 
[V:2] z8 | 
[V:3] dcBAB4 | 
[V:4] z8 | 
[V:5] G,8 | 
[V:6] z8 | 
[V:1] A8 | 
[V:2] z4A4 | 
[V:3] A8- | 
[V:4] A4A2A2 | 
[V:5] D,8- | 
[V:6] z8 | 
[V:1] z8 | 
[V:2] A2A2A2A2 | 
[V:3] A8 | 
[V:4] A2F2FGAB | 
[V:5] D,8 | 
[V:6] A,4A,2A,2 | 
[V:1] z8 | 
[V:2] A4A4 | 
[V:3] z8 | 
[V:4] c3BA2GF | 
[V:5] z8 | 
[V:6] A,3G,F,2E,D, | 
[V:1] z8 | 
[V:2] A6GF | 
[V:3] z8 | 
[V:4] E2D2E4 | 
[V:5] z8 | 
[V:6] C,2D,4^C,2 | 
[V:1] z4d4 | 
[V:2] F4G4 | 
[V:3] d4d2d2 | 
[V:4] F4D3E | 
[V:5] z8 | 
[V:6] D,4G,,4 | 
[V:1] d2d2d2d2 | 
[V:2] F8 | 
[V:3] d2B2Bcde | 
[V:4] F8- | 
[V:5] D4D2D2 | 
[V:6] D,8- | 
[V:1] d4d4 | 
[V:2] F8 | 
[V:3] f3ed2cB | 
[V:4] F8 | 
[V:5] D3CB,2A,G, | 
[V:6] D,8- | 
[V:1] d6cB | 
[V:2] z4A4 | 
[V:3] A2G2A4 | 
[V:4] z8 | 
[V:5] F,2G,4^F,2 | 
[V:6] D,8 | 
[V:1] B4c4 | 
[V:2] G6G2 | 
[V:3] B4G3A | 
[V:4] G8 | 
[V:5] G,4C,4 | 
[V:6] z8 | 
[V:1] B8 | 
[V:2] G4G4 | 
[V:3] B8- | 
[V:4] G4G4- | 
[V:5] G,8- | 
[V:6] z4G,4 | 
[V:1] B8 | 
[V:2] G6F2 | 
[V:3] B8 | 
[V:4] G4G4 | 
[V:5] G,8- | 
[V:6] G,3F,E,2D,2 | 
[V:1] z4d4 | 
[V:2] E2DCB,4 | 
[V:3] z8 | 
[V:4] G4G4 | 
[V:5] G,8 | 
[V:6] C,2B,,A,,B,,4 | 
[V:1] c6c2 | 
[V:2] C8 | 
[V:3] c8 | 
[V:4] C3DE2F2 | 
[V:5] z8 | 
[V:6] A,,8- | 
[V:1] c4c4 | 
[V:2] C4C4 | 
[V:3] c4c4- | 
[V:4] E2F4ED | 
[V:5] z4C4 | 
[V:6] A,,8- | 
[V:1] c6B2 | 
[V:2] E3D/E/F2E2- | 
[V:3] c4c4 | 
[V:4] C4z4 | 
[V:5] C3B,A,2G,2 | 
[V:6] A,,8- | 
[V:1] A2GFE4 | 
[V:2] E2D3^CC2 | 
[V:3] c4c4 | 
[V:4] z4C4 | 
[V:5] F,2E,D,E,4 | 
[V:6] A,,8 | 
[V:1] F8 | 
[V:2] D8 | 
[V:3] F3GA2_B2 | 
[V:4] F6G2 | 
[V:5] D,8- | 
[V:6] z2D,2D,3E, | 
[V:1] F4F4 | 
[V:2] D4D4 | 
[V:3] A2_B4AG | 
[V:4] A2D3EF2- | 
[V:5] D,8- | 
[V:6] F,2_B,,3C,D,E, | 
[V:1] A3G/A/_B2A2- | 
[V:2] D4D2D2- | 
[V:3] F4z4 | 
[V:4] FEDC_B,2F2 | 
[V:5] D,8- | 
[V:6] F,2F,,2G,,2F,,2 | 
[V:1] A2G3^FF2 | 
[V:2] DCB,2A,4 | 
[V:3] z4F4 | 
[V:4] _B,CDEF2D2 | 
[V:5] D,8 | 
[V:6] G,,4D,4 | 
[V:1] G8- | 
[V:2] G,8- | 
[V:3] _B6c2 | 
[V:4] D8- | 
[V:5] z2G,2G,3A, | 
[V:6] G,,8- | 
[V:1] G8 ||  
[V:2] G,8 ||  
[V:3] d8 ||  
[V:4] D8 ||  
[V:5] B,8 ||  
[V:6] G,,8 ||  
[V:1]  [K:C] [K:clef=treble][M:2/1]z8 | 
[V:2]  [K:C] [K:clef=treble][M:2/1]D4E4 | 
[V:3]  [K:C] [K:clef=treble-8][M:2/1]z8 | 
[V:4]  [K:C] [K:clef=treble-8][M:2/1]z8 | 
[V:5]  [K:C] [K:clef=bass][M:2/1]z8 | 
[V:6]  [K:C] [K:clef=bass][M:2/1]z8 | 
[V:1] z4G4 | 
[V:2] D4B,4 | 
[V:3] z8 | 
[V:4] z8 | 
[V:5] z8 | 
[V:6] z8 | 
[V:1] A4G4 | 
[V:2] C2C2B,4 | 
[V:3] z8 | 
[V:4] z8 | 
[V:5] z8 | 
[V:6] z8 | 
[V:1] E4F2F2 | 
[V:2] C2E3DD2 | 
[V:3] z8 | 
[V:4] z8 | 
[V:5] z8 | 
[V:6] z8 | 
[V:1] E4F2A2- | 
[V:2] E4z4 | 
[V:3] z8 | 
[V:4] z8 | 
[V:5] z8 | 
[V:6] z8 | 
[V:1] AGG2A4 | 
[V:2] E4F3D | 
[V:3] z8 | 
[V:4] z8 | 
[V:5] z8 | 
[V:6] z8 | 
[V:1] z4A4 | 
[V:2] EFG4F2 | 
[V:3] z8 | 
[V:4] z8 | 
[V:5] z8 | 
[V:6] z8 | 
[V:1] B3GABc2- | 
[V:2] G3EFEDC | 
[V:3] z8 | 
[V:4] z8 | 
[V:5] z8 | 
[V:6] z8 | 
[V:1] c2B2c3A | 
[V:2] D4C4 | 
[V:3] z8 | 
[V:4] z8 | 
[V:5] z8 | 
[V:6] z8 | 
[V:1] BAGFG4 | 
[V:2] z4z2C2 | 
[V:3] z8 | 
[V:4] z8 | 
[V:5] z8 | 
[V:6] z8 | 
[V:1] F4z4 | 
[V:2] D3B,CDE2 | 
[V:3] z8 | 
[V:4] z8 | 
[V:5] z8 | 
[V:6] z8 | 
[V:1] z2F2G3E | 
[V:2] E2D3B,C2 | 
[V:3] z8 | 
[V:4] z8 | 
[V:5] z8 | 
[V:6] z8 | 
[V:1] FGA2A2G2- | 
[V:2] D4z2B,2 | 
[V:3] z8 | 
[V:4] z8 | 
[V:5] z8 | 
[V:6] z8 | 
[V:1] GEF2G4 | 
[V:2] C2D2E4- | 
[V:3] z8 | 
[V:4] z8 | 
[V:5] z8 | 
[V:6] z8 | 
[V:1] z2E2F2G2 | 
[V:2] E2C2D2E2 | 
[V:3] z8 | 
[V:4] z8 | 
[V:5] z8 | 
[V:6] z8 | 
[V:1] A6F2 | 
[V:2] F6D2 | 
[V:3] z8 | 
[V:4] z8 | 
[V:5] z8 | 
[V:6] z8 | 
[V:1] G2A2B4- | 
[V:2] E2F2G3F | 
[V:3] z8 | 
[V:4] z8 | 
[V:5] z8 | 
[V:6] z8 | 
[V:1] B2G2A2B2 | 
[V:2] D2E2DCB,2 | 
[V:3] z8 | 
[V:4] z8 | 
[V:5] z8 | 
[V:6] z8 | 
[V:1] c3BG2A2 | 
[V:2] A,B,CDE2D2- | 
[V:3] z8 | 
[V:4] z8 | 
[V:5] z8 | 
[V:6] z8 | 
[V:1] GFE2DEFG | 
[V:2] D2C2D2CB, | 
[V:3] z8 | 
[V:4] z8 | 
[V:5] z8 | 
[V:6] z8 | 
[V:1] A2G4^F2 | 
[V:2] CB,A,G,A,4 | 
[V:3] z8 | 
[V:4] z8 | 
[V:5] z8 | 
[V:6] z8 | 
[V:1] G8 ||  
[V:2] G,8 ||  
[V:3] z8 ||  
[V:4] z8 ||  
[V:5] z8 ||  
[V:6] z8 ||  
[V:1]  [K:C] [K:clef=treble][M:2/1]z8 | 
[V:2]  [K:C] [K:clef=treble][M:2/1]z8 | 
[V:3]  [K:C] [K:clef=treble-8][M:2/1]z8 | 
[V:4]  [K:C] [K:clef=treble-8][M:2/1]z8 | 
[V:5]  [K:C] [K:clef=bass][M:2/1]z8 | 
[V:6]  [K:C] [K:clef=bass][M:2/1]G,4G,3F, | 
[V:1] z8 | 
[V:2] z8 | 
[V:3] z8 | 
[V:4] z8 | 
[V:5] z4C4 | 
[V:6] E,2D,2C,4 | 
[V:1] z8 | 
[V:2] z8 | 
[V:3] z8 | 
[V:4] z8 | 
[V:5] C3B,A,2G,2 | 
[V:6] z2F,4E,2 | 
[V:1] z8 | 
[V:2] z8 | 
[V:3] z8 | 
[V:4] z8 | 
[V:5] F,4z2_B,2- | 
[V:6] F,3E,C,2D,2- | 
[V:1] z8 | 
[V:2] z8 | 
[V:3] z8 | 
[V:4] z8 | 
[V:5] B,2A,2_B,3A, | 
[V:6] D,2C,2D,3C, | 
[V:1] z8 | 
[V:2] z8 | 
[V:3] z8 | 
[V:4] z8 | 
[V:5] F,2G,4^F,2 | 
[V:6] A,,2G,,2A,,4 | 
[V:1] z8 | 
[V:2] z8 | 
[V:3] z8 | 
[V:4] z8 | 
[V:5] G,3F,D,2C,2 | 
[V:6] G,,4z2G,2- | 
[V:1] z8 | 
[V:2] z8 | 
[V:3] z8 | 
[V:4] z8 | 
[V:5] D,4C,4 | 
[V:6] G,2F,2E,C,E,F, | 
[V:1] z8 | 
[V:2] z8 | 
[V:3] z8 | 
[V:4] z8 | 
[V:5] z2C4B,2 | 
[V:6] G,2A,4G,2 | 
[V:1] z8 | 
[V:2] z8 | 
[V:3] z8 | 
[V:4] z8 | 
[V:5] A,F,A,B,C2D2- | 
[V:6] A,2A,2A,2G,F, | 
[V:1] z8 | 
[V:2] z8 | 
[V:3] z8 | 
[V:4] z8 | 
[V:5] D2C2D2D2 | 
[V:6] E,D,E,2D,4- | 
[V:1] z8 | 
[V:2] z8 | 
[V:3] z8 | 
[V:4] z8 | 
[V:5] D2CB,A,G,A,2 | 
[V:6] D,4z2D,2 | 
[V:1] z8 | 
[V:2] z8 | 
[V:3] z8 | 
[V:4] z8 | 
[V:5] G,8 | 
[V:6] E,2C,4B,,2 | 
[V:1] z8 | 
[V:2] z8 | 
[V:3] z8 | 
[V:4] z8 | 
[V:5] z2G,2A,2F,2- | 
[V:6] C,D,E,D,/E,/F,2D,2- | 
[V:1] z8 | 
[V:2] z8 | 
[V:3] z8 | 
[V:4] z8 | 
[V:5] F,2E,2F,G,A,G,/A,/ | 
[V:6] D,2C,2D,4 | 
[V:1] z8 | 
[V:2] z8 | 
[V:3] z8 | 
[V:4] z8 | 
[V:5] B,2G,4F,2 | 
[V:6] G,,4z2D,2 | 
[V:1] z8 | 
[V:2] z8 | 
[V:3] z8 | 
[V:4] z8 | 
[V:5] G,4C,4 | 
[V:6] E,2G,4F,E, | 
[V:1] z8 | 
[V:2] z8 | 
[V:3] z8 | 
[V:4] z8 | 
[V:5] z2G,2A,2C2- | 
[V:6] F,2E,4A,2- | 
[V:1] z8 | 
[V:2] z8 | 
[V:3] z8 | 
[V:4] z8 | 
[V:5] C2B,A,B,2A,2- | 
[V:6] A,2G,F,G,2A,2- | 
[V:1] z8 | 
[V:2] z8 | 
[V:3] z8 | 
[V:4] z8 | 
[V:5] A,2D4CB, | 
[V:6] A,2F,4E,D, | 
[V:1] z8 | 
[V:2] z8 | 
[V:3] z8 | 
[V:4] z8 | 
[V:5] C2D4B,2- | 
[V:6] E,2D,4G,2- | 
[V:1] z8 | 
[V:2] z8 | 
[V:3] z8 | 
[V:4] z8 | 
[V:5] B,2A,G,A,2G,2- | 
[V:6] G,2F,E,F,2G,2 | 
[V:1] z8 | 
[V:2] z8 | 
[V:3] z8 | 
[V:4] z8 | 
[V:5] G,2C4B,A, | 
[V:6] C,D,E,F,E,2D,2- | 
[V:1] z8 | 
[V:2] z8 | 
[V:3] z8 | 
[V:4] z8 | 
[V:5] B,2C2F,G,A,B, | 
[V:6] D,2C,2D,3B,, | 
[V:1] z8 | 
[V:2] z8 | 
[V:3] z8 | 
[V:4] z8 | 
[V:5] A,2G,4^F,2 | 
[V:6] C,B,,A,,G,,A,,4 | 
[V:1] z8 ||  
[V:2] z8 ||  
[V:3] z8 ||  
[V:4] z8 ||  
[V:5] G,8 ||  
[V:6] G,,8 ||  
[V:1]  [K:C] [K:clef=treble][M:2/1]z8 | 
[V:2]  [K:C] [K:clef=treble][M:2/1]z8 | 
[V:3]  [K:C] [K:clef=treble-8][M:2/1]z8 | 
[V:4]  [K:C] [K:clef=treble-8][M:2/1]G4G2A2 | 
[V:5]  [K:C] [K:clef=bass][M:2/1]z8 | 
[V:6]  [K:C] [K:clef=bass][M:2/1]G,4G,2F,2 | 
[V:1] z8 | 
[V:2] z8 | 
[V:3] z8 | 
[V:4] B2G2A2B2 | 
[V:5] z8 | 
[V:6] G,2E,2F,2G,2 | 
[V:1] z8 | 
[V:2] z8 | 
[V:3] c4c2d2 | 
[V:4] c4z4 | 
[V:5] C4C2B,2 | 
[V:6] C,4z4 | 
[V:1] z8 | 
[V:2] z8 | 
[V:3] e2c2d2e2 | 
[V:4] z8 | 
[V:5] C2A,2B,2C2 | 
[V:6] z8 | 
[V:1] z8 | 
[V:2] A,2A,B,CDE2 | 
[V:3] f4z4 | 
[V:4] z8 | 
[V:5] F,4z4 | 
[V:6] A,4A,2G,2 | 
[V:1] z8 | 
[V:2] A,2D3^CC2 | 
[V:3] z8 | 
[V:4] z8 | 
[V:5] z8 | 
[V:6] F,4E,4 | 
[V:1] D2DEFGA2 | 
[V:2] D8- | 
[V:3] z8 | 
[V:4] z8 | 
[V:5] D4D2C2 | 
[V:6] D,8- | 
[V:1] D2G3^FF2 | 
[V:2] D8 | 
[V:3] z8 | 
[V:4] z8 | 
[V:5] B,4A,4 | 
[V:6] D,8 | 
[V:1] G8- | 
[V:2] z8 | 
[V:3] z8 | 
[V:4] d4d2d2 | 
[V:5] G,8- | 
[V:6] z8 | 
[V:1] G8 | 
[V:2] z8 | 
[V:3] z8 | 
[V:4] B3AG4 | 
[V:5] G,8 | 
[V:6] z8 | 
[V:1] z8 | 
[V:2] z8 | 
[V:3] g4g2g2 | 
[V:4] z2c4c2 | 
[V:5] z8 | 
[V:6] z8 | 
[V:1] z8 | 
[V:2] z8 | 
[V:3] e3dc4 | 
[V:4] c2A3GFE | 
[V:5] z8 | 
[V:6] z8 | 
[V:1] z8 | 
[V:2] A4A2A2 | 
[V:3] z2f4f2 | 
[V:4] D8 | 
[V:5] z8 | 
[V:6] z8 | 
[V:1] z8 | 
[V:2] F3ED4 | 
[V:3] f2d3cBA | 
[V:4] z8 | 
[V:5] z8 | 
[V:6] z8 | 
[V:1] d4d2d2 | 
[V:2] z2G4G2 | 
[V:3] G8 | 
[V:4] z8 | 
[V:5] z8 | 
[V:6] z8 | 
[V:1] B3AG4 | 
[V:2] G2E3DCB, | 
[V:3] z8 | 
[V:4] z8 | 
[V:5] z8 | 
[V:6] z8 | 
[V:1] z2c4c2 | 
[V:2] A,8 | 
[V:3] z8 | 
[V:4] z8 | 
[V:5] z8 | 
[V:6] A,4A,2A,2 | 
[V:1] c2A3GFE | 
[V:2] z8 | 
[V:3] z8 | 
[V:4] z8 | 
[V:5] z8 | 
[V:6] F,3E,D,4 | 
[V:1] D8 | 
[V:2] z8 | 
[V:3] z8 | 
[V:4] z8 | 
[V:5] D4D2D2 | 
[V:6] z2G,4F,2 | 
[V:1] z8 | 
[V:2] z8 | 
[V:3] z8 | 
[V:4] z8 | 
[V:5] B,3A,G,4 | 
[V:6] G,2E,3D,C,B,, | 
[V:1] z8 | 
[V:2] z8 | 
[V:3] z8 | 
[V:4] z8 | 
[V:5] z2C4B,2 | 
[V:6] A,,3B,,C,D,E,2 | 
[V:1] z8 | 
[V:2] z8 | 
[V:3] z8 | 
[V:4] z8 | 
[V:5] C2A,3G,F,E, | 
[V:6] A,,2D,4C,2 | 
[V:1] z8 | 
[V:2] z8 | 
[V:3] z8 | 
[V:4] z2d4c2 | 
[V:5] D,3E,F,G,A,2 | 
[V:6] D,2B,,2A,,4 | 
[V:1] z8 | 
[V:2] z8 | 
[V:3] z8 | 
[V:4] d2B2A4 | 
[V:5] D,2G,4F,2 | 
[V:6] z8 | 
[V:1] z8 | 
[V:2] z8 | 
[V:3] z2g4f2 | 
[V:4] z8 | 
[V:5] G,2E,2D,4 | 
[V:6] z4z2D,2 | 
[V:1] z8 | 
[V:2] z8 | 
[V:3] g2e2d4 | 
[V:4] z2A4G2 | 
[V:5] z8 | 
[V:6] E,2C,2B,,4 | 
[V:1] z8 | 
[V:2] z8 | 
[V:3] z8 | 
[V:4] A2F2E4 | 
[V:5] z4z2G,2 | 
[V:6] A,,4z4 | 
[V:1] z8 | 
[V:2] z8 | 
[V:3] z2d4c2 | 
[V:4] D4z4 | 
[V:5] A,2F,2E,4 | 
[V:6] z8 | 
[V:1] z8 | 
[V:2] z2D2E2F2 | 
[V:3] d2B2A4 | 
[V:4] z8 | 
[V:5] D,4z4 | 
[V:6] z4z2D,2 | 
[V:1] z8 | 
[V:2] G2E2GFED | 
[V:3] G4z4 | 
[V:4] z8 | 
[V:5] z8 | 
[V:6] E,2C,2B,,4 | 
[V:1] z2G2A2B2 | 
[V:2] C3DEFE2- | 
[V:3] z8 | 
[V:4] z8 | 
[V:5] z4z2G,2 | 
[V:6] A,,2C,4B,,2 | 
[V:1] c2A2cBAG | 
[V:2] E2D4^C2 | 
[V:3] z8 | 
[V:4] z8 | 
[V:5] A,2F,2E,4 | 
[V:6] A,,4A,,4 | 
[V:1] F3GA_BA2- | 
[V:2] D8- | 
[V:3] z8 | 
[V:4] z2d4c2 | 
[V:5] D,2F,4E,2 | 
[V:6] D,8 | 
[V:1] A2G4^F2 | 
[V:2] D8 | 
[V:3] z8 | 
[V:4] B2AGA4 | 
[V:5] D,4D,4 | 
[V:6] z8 | 
[V:1] G8- | 
[V:2] z8 | 
[V:3] z2g4f2 | 
[V:4] G4G4 | 
[V:5] G,8 | 
[V:6] z8 | 
[V:1] G8 | 
[V:2] z8 | 
[V:3] e2dcd4 | 
[V:4] G4G4 | 
[V:5] z8 | 
[V:6] z8 | 
[V:1] z8 | 
[V:2] z8 | 
[V:3] c4c4 | 
[V:4] A6G2 | 
[V:5] z8 | 
[V:6] z8 | 
[V:1] z8 | 
[V:2] z8 | 
[V:3] c4c4 | 
[V:4] F2EDE4 | 
[V:5] z8 | 
[V:6] z8 | 
[V:1] z8 | 
[V:2] F6F2 | 
[V:3] d6c2 | 
[V:4] D8- | 
[V:5] z8 | 
[V:6] z8 | 
[V:1] z8 | 
[V:2] F4F4 | 
[V:3] B2AGA4 | 
[V:4] D8 | 
[V:5] z8 | 
[V:6] z8 | 
[V:1] B6B2 | 
[V:2] G3FD2G2- | 
[V:3] G8- | 
[V:4] z8 | 
[V:5] z8 | 
[V:6] G,6G,2 | 
[V:1] B4B4 | 
[V:2] G2FED4 | 
[V:3] G8 | 
[V:4] z8 | 
[V:5] z8 | 
[V:6] G,4G,4 | 
[V:1] c3BG2c2- | 
[V:2] C8 | 
[V:3] z8 | 
[V:4] z8 | 
[V:5] C6C2 | 
[V:6] A,3G,E,2A,2- | 
[V:1] c2BAG4 | 
[V:2] E6E2 | 
[V:3] z8 | 
[V:4] z8 | 
[V:5] C4C4 | 
[V:6] A,2G,F,E,4 | 
[V:1] F8 | 
[V:2] F4F4 | 
[V:3] z8 | 
[V:4] F6F2 | 
[V:5] D3CA,2D2- | 
[V:6] D,8- | 
[V:1] A6A2 | 
[V:2] F8 | 
[V:3] z8 | 
[V:4] D4D4 | 
[V:5] D2CB,A,4 | 
[V:6] D,8 | 
[V:1] B4B4 | 
[V:2] G8 | 
[V:3] B6B2 | 
[V:4] G8 | 
[V:5] G,8- | 
[V:6] G,,6G,,2 | 
[V:1] B8 | 
[V:2] z4G4 | 
[V:3] G4G4 | 
[V:4] G4G4 | 
[V:5] G,8 | 
[V:6] G,,4B,,4 | 
[V:1] c8 | 
[V:2] A6G2 | 
[V:3] c8 | 
[V:4] E4E4 | 
[V:5] C,6C,2 | 
[V:6] A,,8 | 
[V:1] z4c4 | 
[V:2] F4E4 | 
[V:3] c4c4 | 
[V:4] A4A4 | 
[V:5] C,4E,4 | 
[V:6] A,,8 | 
[V:1] d6c2 | 
[V:2] F3EFGA2- | 
[V:3] A4A4 | 
[V:4] F6ED | 
[V:5] D,8 | 
[V:6] z8 | 
[V:1] B4A4 | 
[V:2] AGG3^FF2 | 
[V:3] d4d4 | 
[V:4] F2G2A4 | 
[V:5] D,8 | 
[V:6] z8 | 
[V:1] B3ABcd2- | 
[V:2] G8 | 
[V:3] B6AG | 
[V:4] G8 | 
[V:5] z8 | 
[V:6] z8 | 
[V:1] dcc3BB2 | 
[V:2] z8 | 
[V:3] B2c2d4 | 
[V:4] z8 | 
[V:5] z8 | 
[V:6] z8 | 
[V:1] c8 | 
[V:2] G3GG2G2 | 
[V:3] c8 | 
[V:4] G6G2 | 
[V:5] z8 | 
[V:6] C,6C,2 | 
[V:1] z8 | 
[V:2] E2G3FED | 
[V:3] z8 | 
[V:4] G4G4 | 
[V:5] z8 | 
[V:6] C,4B,,4 | 
[V:1] c3cc2c2 | 
[V:2] C2C2A,2A,2 | 
[V:3] c6c2 | 
[V:4] A8- | 
[V:5] F,6F,2 | 
[V:6] A,,4A,,4 | 
[V:1] A2c3BAG | 
[V:2] C3DE2E2 | 
[V:3] c4c4 | 
[V:4] A8 | 
[V:5] F,4E,4 | 
[V:6] A,,2A,,2A,,4 | 
[V:1] F2F2D2D2 | 
[V:2] F2D2FEDC | 
[V:3] d8- | 
[V:4] z8 | 
[V:5] D,4D,4 | 
[V:6] z8 | 
[V:1] F3GA2A2 | 
[V:2] _B,4A,2F2 | 
[V:3] d8 | 
[V:4] z8 | 
[V:5] D,2D,2D,4 | 
[V:6] z4A,4 | 
[V:1] _B2G2BAGF | 
[V:2] G3FE2D2- | 
[V:3] z8 | 
[V:4] z8 | 
[V:5] z8 | 
[V:6] G,2E,4F,2 | 
[V:1] E4D2B2 | 
[V:2] D^CC2D4 | 
[V:3] z8 | 
[V:4] z8 | 
[V:5] z4D4 | 
[V:6] G,2A,2D,4 | 
[V:1] c3BA2G2- | 
[V:2] z8 | 
[V:3] z8 | 
[V:4] z8 | 
[V:5] C2A,4B,2 | 
[V:6] z8 | 
[V:1] G^FF2G4 | 
[V:2] z8 | 
[V:3] z8 | 
[V:4] z8 | 
[V:5] C2D2G,4 | 
[V:6] z8 | 
[V:1] [M:3/1]z12 | 
[V:2] [M:3/1]D4D4D4 | 
[V:3] [M:3/1]z12 | 
[V:4] [M:3/1]G6A2B4 | 
[V:5] [M:3/1]z12 | 
[V:6] [M:3/1]G,4G,4G,4 | 
[V:1] z12 | 
[V:2] E6C2E2F2 | 
[V:3] z12 | 
[V:4] E4A4G4 | 
[V:5] z12 | 
[V:6] C,4C,4C,4 | 
[V:1] [M:3/1]G4G4G4 | 
[V:2] G4G2F4E2 | 
[V:3] [M:3/1]c6d2e4 | 
[V:4] E2F2G2A2G4 | 
[V:5] [M:3/1]C4C4C4 | 
[V:6] C,4C,8 | 
[V:1] A6F2A2B2 | 
[V:2] F12 | 
[V:3] A4d4c4 | 
[V:4] F12 | 
[V:5] F,4F,4F,4 | 
[V:6] F,12 | 
[V:1] c4c2_B4A2 | 
[V:2] z4z4F4 | 
[V:3] A2_B2c2d2c4 | 
[V:4] z12 | 
[V:5] F,4F,8 | 
[V:6] z4z4F,4 | 
[V:1] _B12 | 
[V:2] D6E2F4 | 
[V:3] _B12 | 
[V:4] z12 | 
[V:5] _B,12 | 
[V:6] G,6F,2D,4 | 
[V:1] z4z4_B4 | 
[V:2] G6F2D4 | 
[V:3] z12 | 
[V:4] z4z4G4 | 
[V:5] z4z4_B,4 | 
[V:6] C,4G,,8 | 
[V:1] G6A2_B4 | 
[V:2] E6F2G4 | 
[V:3] z12 | 
[V:4] G2G4G2G4 | 
[V:5] C6_B,2G,4 | 
[V:6] C,8z4 | 
[V:1] c6_B2G4 | 
[V:2] A4F2F4E2 | 
[V:3] z4z4c4 | 
[V:4] c4A2F2G4 | 
[V:5] F,4C,8 | 
[V:6] z12 | 
[V:1] A6_B2c4 | 
[V:2] F12 | 
[V:3] c2c4c2c4 | 
[V:4] F12 | 
[V:5] F,8z4 | 
[V:6] z12 | 
[V:1] d4_B2B4A2 | 
[V:2] z12 | 
[V:3] f4d2_B2c4 | 
[V:4] z4z4F4 | 
[V:5] z12 | 
[V:6] z12 | 
[V:1] _B12 | 
[V:2] D8G4 | 
[V:3] _B12 | 
[V:4] G6F2E2D2 | 
[V:5] z12 | 
[V:6] z12 | 
[V:1] z12 | 
[V:2] E4F8 | 
[V:3] z4z4B4 | 
[V:4] C4D8 | 
[V:5] z12 | 
[V:6] z12 | 
[V:1] G8c4 | 
[V:2] E4C2D2E4 | 
[V:3] c6_B2A2G2 | 
[V:4] C12 | 
[V:5] z12 | 
[V:6] z12 | 
[V:1] A4_B8 | 
[V:2] F6E2E4 | 
[V:3] F4G8 | 
[V:4] z12 | 
[V:5] z12 | 
[V:6] z12 | 
[V:1] A4F2G2A4 | 
[V:2] F4D2E2F4 | 
[V:3] F12 | 
[V:4] F6F2F4 | 
[V:5] z12 | 
[V:6] D,8D,4 | 
[V:1] _B6A2A4 | 
[V:2] G6F2F4 | 
[V:3] z12 | 
[V:4] D4E4F4 | 
[V:5] z12 | 
[V:6] G,,2A,,2_B,,2C,2D,4 | 
[V:1] _B4G2A2B4 | 
[V:2] G6F2D4 | 
[V:3] _B6_B2_B4 | 
[V:4] D12 | 
[V:5] G,8G,4 | 
[V:6] G,,12 | 
[V:1] c6_B2B4 | 
[V:2] C4D8 | 
[V:3] G4A4_B4 | 
[V:4] z4z4G4 | 
[V:5] C,2D,2E,2F,2G,4 | 
[V:6] z12 | 
[V:1] c6_B2G4 | 
[V:2] C2D2E2F2E4 | 
[V:3] G12 | 
[V:4] c4c6_B2 | 
[V:5] C,12 | 
[V:6] C,8C,4 | 
[V:1] F4G8 | 
[V:2] D8^C4 | 
[V:3] z4z4c4 | 
[V:4] A6G2G4 | 
[V:5] z12 | 
[V:6] D,4E,8 | 
[V:1] F2G2A2_B2A4 | 
[V:2] D12 | 
[V:3] f4f6e2 | 
[V:4] A12 | 
[V:5] F,8F,4 | 
[V:6] D,12 | 
[V:1] G8^F4 | 
[V:2] z12 | 
[V:3] d6c2c4 | 
[V:4] z12 | 
[V:5] G,4A,8 | 
[V:6] z12 | 
[V:1] G8 | 
[V:2] [M:2/1]z4G4 | 
[V:3] d8 | 
[V:4] [M:2/1]z4G4 | 
[V:5] G,8 | 
[V:6] [M:2/1]G,,8 | 
[V:1] z8 | 
[V:2] G6E2 | 
[V:3] z8 | 
[V:4] G8 | 
[V:5] z8 | 
[V:6] G,,8 | 
[V:1] [M:2/1]z4c4 | 
[V:2] E8 | 
[V:3] [M:2/1]z4c4 | 
[V:4] C4C3D | 
[V:5] [M:2/1]C,8 | 
[V:6] A,,8- | 
[V:1] c6A2 | 
[V:2] E4E4 | 
[V:3] c8 | 
[V:4] E2F2E2A2- | 
[V:5] C,8 | 
[V:6] A,,8 | 
[V:1] A8 | 
[V:2] F4F2A2- | 
[V:3] F4F3G | 
[V:4] A2D2D4 | 
[V:5] D,8- | 
[V:6] z4D,4 | 
[V:1] A4A4 | 
[V:2] A2G3^FF2 | 
[V:3] A2_B2A2d2- | 
[V:4] F2G2A4 | 
[V:5] D,8 | 
[V:6] D,8 | 
[V:1] B4B2d2- | 
[V:2] G8- | 
[V:3] d2G2G4 | 
[V:4] G8 | 
[V:5] z4G,4 | 
[V:6] G,,8- | 
[V:1] d2c3BB2 | 
[V:2] G8 | 
[V:3] B2c2d4 | 
[V:4] z4G4- | 
[V:5] G,8 | 
[V:6] G,,8 | 
[V:1] c8- | 
[V:2] E8- | 
[V:3] c8 | 
[V:4] G2F2E2D2 | 
[V:5] C,8- | 
[V:6] z4C,4- | 
[V:1] c8 | 
[V:2] E4E4 | 
[V:3] z4c4- | 
[V:4] C4C4 | 
[V:5] C,8 | 
[V:6] C,2B,,2A,,2G,,2 | 
[V:1] A8- | 
[V:2] F8 | 
[V:3] c2B2A2G2 | 
[V:4] z8 | 
[V:5] z4F,4- | 
[V:6] F,,8 | 
[V:1] A4A4 | 
[V:2] F6ED | 
[V:3] F4F4 | 
[V:4] z8 | 
[V:5] F,2E,2D,2C,2 | 
[V:6] F,,8 | 
[V:1] _B8 | 
[V:2] D8 | 
[V:3] z8 | 
[V:4] G4G2G2- | 
[V:5] _B,,8 | 
[V:6] G,,8- | 
[V:1] _B6AG | 
[V:2] z4D4 | 
[V:3] z8 | 
[V:4] G2FED4 | 
[V:5] _B,,8 | 
[V:6] G,,8 | 
[V:1] G8 | 
[V:2] G4E2E2- | 
[V:3] c4c2c2- | 
[V:4] E8- | 
[V:5] C,8- | 
[V:6] z4C,4- | 
[V:1] z4G4 | 
[V:2] E2D2C2B,2 | 
[V:3] c2BAG4 | 
[V:4] E8 | 
[V:5] C,8 | 
[V:6] C,2D,2E,4 | 
[V:1] c4A2A2- | 
[V:2] A,4D4- | 
[V:3] A8- | 
[V:4] z2A3GF2- | 
[V:5] z4F,4- | 
[V:6] A,,8 | 
[V:1] A2G2F2E2 | 
[V:2] D4C4 | 
[V:3] A8 | 
[V:4] F2EDE2A2 | 
[V:5] F,2G,2A,4 | 
[V:6] A,,8 | 
[V:1] D4G4- | 
[V:2] D8- | 
[V:3] z2d3cB2- | 
[V:4] F2D4d2- | 
[V:5] D,8 | 
[V:6] _B,,4G,,4 | 
[V:1] G4^F4 | 
[V:2] D8 | 
[V:3] B2AGA2d2 | 
[V:4] d2cBA4 | 
[V:5] D,8- | 
[V:6] D,8 | 
[V:1] G8- | 
[V:2] D8- | 
[V:3] B8- | 
[V:4] G4G4 | 
[V:5] D,8- | 
[V:6] G,,8- | 
[V:1] G8 | 
[V:2] D8- | 
[V:3] B8- | 
[V:4] G8- | 
[V:5] D,8- | 
[V:6] G,,8- | 
[V:1] G8 |]  
[V:2] D8 |]  
[V:3] B8 |]  
[V:4] G8 |]  
[V:5] D,8 |]  
[V:6] G,,8 |]  



